X:168
T:Old Wife of Coverdale
M:6/8
L:1/8
Q:1/8=150
K:G
ABA c2 e|edc  BAB|G2 B BGE|ABA c2 e|edc  BAB|1 GAB G3|2 GAB G2
||
e|agf edc|B3 g3|B3 e3|agf edc|B2 B G2 B|1 A3 A2|2 A3 A3||
